X:1
T:Title
%%score 1 ( 2 3 )
L:1/8
Q:1/4=85
M:4/4
K:Bb
V:1 treble nm="Grand Piano, Soprano"
V:2 bass nm="Choir Pad, Glendale, A. E. Bloom, 1909"
V:3 bass 
V:1
 [DF][EG][DF][B,D]- [B,D]2 [DB][CA] | [DB][Ec]- [Ec]/[DB]/[FA]- [FA] [EG]3 | %2
w: By~A.~E.~Bloom,~1909 * * * * * *||
 [A,C][A,C][B,D][CE]- [CE]2 [DF][FA] | [EG][DF]- [DF]/[CE]/[B,D]- [B,D]2- [B,D]/ z/ z | %4
w: ||
 [DF][EG][DF][B,D]- [B,D]3/2 z/ [DB][CA] | [DB][Ec]- [Ec]/[DB]/[FA]- [FA] [EG]3 | %6
w: ||
 [GB][FA][EG][DF]- [DF]3/2 z/ [DF][EG] | [DF][DF]- [DF]/[CE]/[B,D]- [B,D]2- [B,D]/ z/ z | %8
w: ||
 [DF][DF][DB][Fd]- [Fd]2 [Ge][Fd] | [Ec][DB]- [DB]/[DF]/[FA]- [FA] [EG]3 | %10
w: ||
 [A,C][A,C][B,D][CE]- [CE]2 [DF][FA] | [EG][DF]- [DF]/[CE]/[B,D]- [B,D]2- [B,D]/ z/ z | %12
w: ||
 [DF][EG][DF][B,D]- [B,D]2 [DB][CA] | [DB][Ec]- [Ec]/[DB]/[FA]- [FA] [EG]3 | %14
w: ||
 [GB][FA][EG][DF]- [DF]2 [DB][CB] | [CA][EG][EA][DB]- [DB]4- | [DB]2 z2 z4 |] %17
w: |||
V:2
 z4 D, F,3- | F,2 z2 E,,G,,B,,E, | z4 A,,C, F,2- | F,2 z2 B,,C,G,F, | z4 D, F,3- | %5
 F,2 z2 E,,G,,B,,E, | z4 B,,C, .F,2 | F,-[G,,F,-][A,,F,][B,,F,]- [B,,F,]2- [B,,F,]/ z/ z | %8
 [B,,B,][B,,B,][B,,F,][B,,B,]- [B,,B,]2 [B,,B,][B,,B,] | %9
 [B,,B,][B,,B,]- [B,,B,]/[B,,B,]/[E,B,]- [E,B,] [E,B,]3 | F,F,F,[F,A,]- [F,A,]2 [F,A,][F,C] | %11
 [F,B,][F,A,]- [F,A,]/F,/[B,,F,]- [B,,F,]2- [B,,F,]/ z/ z | %12
 [B,,B,][B,,B,][B,,B,][B,,F,]- [B,,F,]2 [B,,F,][B,,F,] | %13
 [B,,F,][B,,F,]- [B,,F,]/[B,,B,]/[E,B,]- [E,B,] [E,B,]3 | %14
 [E,B,][E,B,][E,B,][F,B,]- [F,B,]2 [F,B,][F,C] | F,[F,A,][F,C][B,,B,]- [B,,B,]4- | %16
 [B,,B,]2 z2 z4 |] %17
V:3
 z2 z B,,- B,,2- B,,/ z/ z | x8 | z2 z F,,- F,,2- F,,/ z/ z | x8 | z2 z B,,- B,,2- B,,/ z/ z | x8 | %6
 z2 z F,,- F,,3 z | .F,,2 z2 z4 | x8 | x8 | x8 | x8 | x8 | x8 | x8 | x8 | x8 |] %17

